picto/emergency.svg

<svg class="color-immutable" width="24" height="24" viewBox="0 0 24 24" fill="none" xmlns="http://www.w3.org/2000/svg"><path d="M0 22.5V1.5C0 0.675 0.675 0 1.5 0H22.5C23.325 0 24 0.675 24 1.5V22.5C24 23.325 23.325 24 22.5 24H1.5C0.675 24 0 23.325 0 22.5Z" fill="#237F52"/><path d="M8.42109 3.02L7.18909 3.398L7.19909 7.725L8.66009 7.277C8.84509 7.219 8.97109 7.051 8.97309 6.856L8.99309 3.447C8.99509 3.401 8.98809 3.358 8.97509 3.316C8.90209 3.08 8.65509 2.948 8.42109 3.02Z" fill="white"/><path d="M11.9301 16.353C11.8191 16.195 11.6201 16.124 11.4371 16.181L9.9751 16.628L12.3921 20.216L13.6241 19.837C13.8581 19.766 13.9881 19.516 13.9181 19.284C13.9051 19.24 13.8871 19.201 13.8591 19.162L11.9301 16.353Z" fill="white"/><path d="M8.57505 17.2C7.70205 15.858 7.02005 14.401 6.55205 12.871C6.08205 11.341 5.83005 9.752 5.80005 8.155L6.68205 7.884L6.67005 3.557L5.40805 3.943C4.78605 4.135 4.28005 4.589 4.02305 5.186C2.84805 7.908 2.68005 10.959 3.55005 13.792C4.42105 16.626 6.26805 19.058 8.76905 20.653C9.31505 21.002 9.99105 21.093 10.6111 20.902L11.8731 20.515L9.45605 16.928L8.57505 17.2Z" fill="white"/><path d="M16.0601 4.573C16.0601 3.981 16.2841 3.497 16.8611 3.497C17.2521 3.497 17.6641 3.812 17.6641 4.573C17.6641 5.145 17.4031 5.623 16.8611 5.623C16.2651 5.623 16.0601 5.073 16.0601 4.573ZM15.4961 4.569C15.4961 5.432 16.0031 6.104 16.8661 6.104C17.6281 6.104 18.2291 5.522 18.2291 4.572C18.2291 3.687 17.7041 3 16.8611 3C16.0941 3 15.4961 3.594 15.4961 4.569Z" fill="white"/><path d="M12.729 5.093C12.729 5.387 12.943 6.106 13.993 6.106C14.991 6.106 15.192 5.515 15.192 5.146C15.192 4.652 14.848 4.378 14.436 4.311C14.344 4.294 14.1 4.259 14.008 4.245C13.688 4.196 13.392 4.189 13.392 3.899C13.392 3.632 13.641 3.49 13.96 3.49C14.264 3.49 14.574 3.607 14.595 3.967H15.172C15.155 3.665 14.94 3.008 13.961 3.008C13.344 3.008 12.837 3.328 12.837 3.95C12.837 4.605 13.444 4.734 13.861 4.786C13.953 4.797 14.154 4.826 14.207 4.835C14.458 4.875 14.618 4.994 14.618 5.206C14.618 5.491 14.295 5.623 14.014 5.623C13.661 5.623 13.315 5.479 13.315 5.094H12.729V5.093Z" fill="white"/><path d="M18.54 5.093C18.54 5.387 18.752 6.106 19.803 6.106C20.8 6.105 21 5.515 21 5.146C21 4.652 20.657 4.378 20.246 4.311C20.154 4.294 19.91 4.259 19.818 4.245C19.498 4.196 19.202 4.189 19.202 3.899C19.202 3.632 19.452 3.49 19.77 3.49C20.075 3.49 20.384 3.607 20.405 3.967H20.981C20.963 3.665 20.75 3.008 19.771 3.008C19.154 3.008 18.647 3.328 18.647 3.95C18.647 4.605 19.255 4.734 19.671 4.786C19.762 4.797 19.964 4.826 20.017 4.835C20.268 4.875 20.428 4.994 20.428 5.206C20.428 5.491 20.107 5.623 19.825 5.623C19.474 5.623 19.126 5.479 19.126 5.094H18.54V5.093Z" fill="white"/></svg>

<svg class="color-immutable" width="24" height="24" viewBox="0 0 24 24" fill="none" xmlns="http://www.w3.org/2000/svg"><g clip-path="url(#a)"><path d="M0 22.5v-21C0 .675.675 0 1.5 0h21c.825 0 1.5.675 1.5 1.5v21c0 .825-.675 1.5-1.5 1.5h-21C.675 24 0 23.325 0 22.5Z" fill="#237F52"/><path d="m8.421 3.02-1.232.378.01 4.327 1.461-.448a.444.444 0 0 0 .313-.421l.02-3.409a.444.444 0 0 0-.572-.427ZM11.93 16.353a.443.443 0 0 0-.493-.172l-1.462.447 2.417 3.588 1.232-.379a.445.445 0 0 0 .235-.675l-1.929-2.809Z" fill="#fff"/><path d="M8.575 17.2A17.164 17.164 0 0 1 5.8 8.155l.882-.271-.012-4.327-1.262.386a2.22 2.22 0 0 0-1.385 1.243A12.475 12.475 0 0 0 8.77 20.653c.546.349 1.222.44 1.842.249l1.262-.387-2.417-3.587-.881.272ZM16.06 4.573c0-.592.224-1.076.801-1.076.391 0 .803.315.803 1.076 0 .572-.26 1.05-.803 1.05-.596 0-.8-.55-.8-1.05Zm-.564-.004c0 .863.507 1.535 1.37 1.535.762 0 1.363-.582 1.363-1.532 0-.885-.525-1.572-1.368-1.572-.767 0-1.365.594-1.365 1.569ZM12.729 5.093c0 .294.214 1.013 1.264 1.013.998 0 1.199-.591 1.199-.96 0-.494-.344-.768-.756-.835-.092-.017-.336-.052-.428-.066-.32-.049-.616-.056-.616-.346 0-.267.249-.409.568-.409.304 0 .614.117.635.477h.577c-.017-.302-.232-.959-1.211-.959-.617 0-1.124.32-1.124.942 0 .655.607.784 1.024.836.092.011.293.04.346.049.251.04.411.159.411.371 0 .285-.323.417-.604.417-.353 0-.699-.144-.699-.529h-.586v-.001ZM18.54 5.093c0 .294.212 1.013 1.263 1.013C20.8 6.105 21 5.515 21 5.146c0-.494-.343-.768-.754-.835-.092-.017-.336-.052-.428-.066-.32-.049-.616-.056-.616-.346 0-.267.25-.409.568-.409.305 0 .614.117.635.477h.576c-.018-.302-.231-.959-1.21-.959-.617 0-1.124.32-1.124.942 0 .655.608.784 1.024.836.091.011.293.04.346.049.251.04.411.159.411.371 0 .285-.321.417-.603.417-.351 0-.699-.144-.699-.529h-.586v-.001Z" fill="#fff"/></g><defs><clipPath id="a"><path fill="#fff" d="M0 0h24v24H0z"/></clipPath></defs></svg>
